storage/app/icons/phosphoricons/bold/flashlight-bold.svg

<svg xmlns="http://www.w3.org/2000/svg" fill="currentColor" viewBox="0 0 256 256"><path d="M184 12H72a20 20 0 0 0-20 20v45.33a20.12 20.12 0 0 0 4 12L76 116v108a20 20 0 0 0 20 20h64a20 20 0 0 0 20-20V116l20-26.67a20.12 20.12 0 0 0 4-12V32a20 20 0 0 0-20-20m-4 24v16H76V36Zm-20 66.67a20.12 20.12 0 0 0-4 12V220h-56V114.67a20.12 20.12 0 0 0-4-12L76 76h104ZM140 120v32a12 12 0 0 1-24 0v-32a12 12 0 0 1 24 0"/></svg>

<svg xmlns="http://www.w3.org/2000/svg" viewBox="0 0 256 256" fill="currentColor"><path d="M184,12H72A20,20,0,0,0,52,32V77.33a20.12,20.12,0,0,0,4,12L76,116V224a20,20,0,0,0,20,20h64a20,20,0,0,0,20-20V116l20-26.67a20.12,20.12,0,0,0,4-12V32A20,20,0,0,0,184,12Zm-4,24V52H76V36Zm-20,66.67a20.12,20.12,0,0,0-4,12V220H100V114.67a20.12,20.12,0,0,0-4-12L76,76H180ZM140,120v32a12,12,0,0,1-24,0V120a12,12,0,0,1,24,0Z"/></svg>
